X: 556
%
U:~=!turn!
T: The Red Haired Girl of Tulloch
C:Pipe tune
O:Scotland
B:Keith Norman MacDonald : "The Skye collection of the best reels & strathspeys extant" : 1887
Z:Ralph Palmer
R:Strathspey
M:C
L:1/8
K:F# phrygian
B<Bd>e f>ef<a | A<Ac>B A>ce>c | B>Bd>e f>ef>^g | a>fe>c B<B f2 :| d>fB>f d<fB>f | c<eA>e c<eA>e |
d<fB>f d<fB>f | a>fe>c B<B f2 | d>fB>f d>fB>f | c>eA>e c>eA>e | B<Bd>e f>ef>^g | a>fe>c B<B f2 |]


